X:372
T: Ist denn Liebe ein Verbrechen (100), S. 249
N: T0261
O: Luxemburg
S: Singendes Volk, Esch-Alzette 1937 posth.]
N: Junglinster, fff Ccilie Wolter, 1900
R: Liebeslieder]
M: 3/4
L: 1/16
K: C
E3F | G4c4d3cB2A2 | G2E2G4
A2A2 | G6D2F2E2 | D4z4
E3F | G4c4d3cB2A2 | G2E2G4
A2A2 | G6D2F2E2 | D4z4
c2c2 | B2d2c4G2G2 | c2e2e4
c2c2 | B2d2d4c2d2 | e6d2
c2A2 | G6G2A2G2 | G2F2F4
A2A2 | G6D2E2D2 | C4z4

